X:0
T:Delayed Gratification
M:C|
L:1/8
K:Am
C:© Paul Gitlitz
AB|"Am"cBA2 E2AB|"F"cBA2 F4|"G"G>zB2- Bc2G|B2Bc- cBAB|!
"Am"cBA2 E2AB|"F"cBA2 F4|"G"G>zB2- Bc2A|1BcB2 "Am"A2:|2BcB2 "Am"A4|!
|:"F"FAcA dAcA|FAcd _edcA|"Am"EABA cABA |EABc dcBA|!
"F"FAcA dAcA|FA_ed cAFA|1"G"B3B- Bcd2| "E7"e8:|2"G"GABc BAG2|"Am"A8|]
